X:174
T: Waise und Stiefmutter
N: Q0116A
O: Osteuropa, Ungarn, Munkacz, Erwinsdorf
R: Ballade, Waise, boese Stiefmutter, Klage am Grab, Geist
M: 6/8
L: 1/8
K: G
D | G2GGFG | A3z2
D | A2AAGA | B3z2
d | B2BBAB | c3z2
c | B2GA2F | G3z2

